src/assets/img/exit.svg

<svg width="22" height="24" viewBox="0 0 22 24" fill="none" xmlns="http://www.w3.org/2000/svg">
<path d="M15.7624 18.1762C15.2592 18.1762 14.8513 18.5872 14.8513 19.0942V21.6646H1.82225V1.83598H14.8513V4.40635C14.8513 4.91335 15.2592 5.32434 15.7624 5.32434C16.2657 5.32434 16.6736 4.91335 16.6736 4.40635V0.917989C16.6736 0.410984 16.2657 0 15.7624 0H0.911124C0.40791 0 0 0.410984 0 0.917989V22.5825C0 23.0895 0.40791 23.5005 0.911124 23.5005H15.7624C16.2657 23.5005 16.6736 23.0895 16.6736 22.5825V19.0942C16.6736 18.5872 16.2657 18.1762 15.7624 18.1762Z" fill="#EFEEEA"/>
<path d="M21.6913 11.1007L19.2432 8.63411C18.8874 8.27559 18.3105 8.27563 17.9546 8.63411C17.5988 8.99258 17.5988 9.57385 17.9546 9.93237L18.8475 10.8319L11.2998 10.8318C10.7966 10.8318 10.3887 11.2428 10.3887 11.7498C10.3887 12.2568 10.7966 12.6678 11.2998 12.6678L18.8475 12.6678L17.9547 13.5674C17.5989 13.9259 17.5989 14.5071 17.9547 14.8656C18.3105 15.2242 18.8874 15.2241 19.2432 14.8656L21.6914 12.399C21.6914 12.3989 21.6916 12.3987 21.6916 12.3987C21.8749 12.2139 21.9517 12.0002 21.9583 11.7499C21.9583 11.5024 21.8539 11.2644 21.6913 11.1007Z" fill="#EFEEEA"/>
</svg>

<svg xmlns="http://www.w3.org/2000/svg" width="22" height="24" fill="none" viewBox="0 0 22 24"><path fill="#efeeea" d="M15.762 18.176a.915.915 0 0 0-.91.918v2.57H1.821V1.837h13.03v2.57c0 .507.407.918.91.918a.915.915 0 0 0 .912-.918V.918A.915.915 0 0 0 15.762 0H.912A.915.915 0 0 0 0 .918v21.665c0 .507.408.918.911.918h14.851a.915.915 0 0 0 .912-.919v-3.488a.915.915 0 0 0-.912-.918"/><path fill="#efeeea" d="m21.691 11.1-2.448-2.466a.906.906 0 0 0-1.288 0 .923.923 0 0 0 0 1.298l.893.9H11.3a.915.915 0 0 0-.911.918c0 .507.408.918.91.918h7.549l-.893.9a.923.923 0 0 0 0 1.298.906.906 0 0 0 1.288 0l2.448-2.467a.9.9 0 0 0 .267-.65.94.94 0 0 0-.267-.648"/></svg>
